X: 100
T:Eos Lais
R:march
C:TRAD
P:AB
M:4/4
L:1/4
Q:1/4=120
K:Em
||E>F GA|BB/^A/BB/(3F/4G/4A/4|B/F/F/G/FF/(3F/4G/4A/4|B/F/F/G/FF/(3F/4G/4A/4|
B/F/G/E/F/^D/E/E/|FGF>G|F/E/F/G/B>B|GGF>F|G/A/B/A/4G/4 A/B/c/d/4c/4|BA{BA}G2||
||BB/A/G/A/B/^c/|d/A/A/G/F/>G/A|B/^c/d/c/4B/4A/G/F/E/|^DE/G/FF|BBB/A/G/F/|
EE/>F/E/F/G/A/|BBB/A/G/F/EE/>F/E/F/G/>F/|G/A/B/A/ A/B/c/B/4A/4|B/E/G/F/E2||
